logos/riot.svg

<?xml version="1.0" encoding="UTF-8"?>
<svg width="256px" height="248px" viewBox="0 0 256 248" version="1.1" xmlns="http://www.w3.org/2000/svg" xmlns:xlink="http://www.w3.org/1999/xlink" preserveAspectRatio="xMidYMid">
    <g>
        <path d="M0,3.79862486 C0,1.70070025 1.70069564,0 3.79862486,0 L173.71422,0 C219.159524,0 256,36.9650162 256,82.5639207 L256,97.1127928 C256,99.2108396 254.300252,100.91151 252.201514,100.91151 L204.941377,100.91151 C202.84356,100.91151 201.14289,99.210609 201.14289,97.1127928 L201.14289,82.5639207 C201.14289,67.364209 188.862732,55.0425369 173.71422,55.0425369 L58.655827,55.0425369 C56.5577802,55.0425369 54.8571099,56.7432072 54.8571099,58.8412541 L54.8571099,243.894198 C54.8571099,245.990631 53.1509045,247.706523 51.0579315,247.561225 C22.5334429,245.603171 0,221.766804 0,192.648995 L0,3.79862486 Z M104.370047,110.085305 L192,110.085305 C227.34622,110.085305 256,138.835719 256,174.301636 L256,192.648995 C256,221.766804 233.467387,245.603171 204.942068,247.561225 C202.849095,247.706523 201.14289,245.990631 201.14289,243.894198 L201.14289,174.301636 C201.14289,169.235142 197.049427,165.127841 192,165.127841 L155.42867,165.127841 C126.404497,165.127841 102.64516,142.51151 100.700022,113.884483 C100.557953,111.79151 102.272231,110.085305 104.370047,110.085305 Z" fill="#ED1846" fill-rule="nonzero"></path>
    </g>
</svg>

<svg preserveAspectRatio="xMidYMid" viewBox="0 0 256 248" xmlns="http://www.w3.org/2000/svg">
  <path fill="#ED1846" d="M0 3.799C0 1.7 1.7 0 3.799 0h169.915C219.16 0 256 36.965 256 82.564v14.549c0 2.098-1.7 3.799-3.798 3.799h-47.26a3.799 3.799 0 0 1-3.8-3.8V82.565c0-15.2-12.28-27.521-27.428-27.521H58.656a3.799 3.799 0 0 0-3.799 3.798v185.053c0 2.097-1.706 3.813-3.8 3.667C22.534 245.603 0 221.767 0 192.65V3.799Zm104.37 106.286H192c35.346 0 64 28.75 64 64.217v18.347c0 29.118-22.533 52.954-51.058 54.912-2.093.146-3.8-1.57-3.8-3.667v-69.592c0-5.067-4.093-9.174-9.142-9.174h-36.571c-29.025 0-52.784-22.616-54.729-51.244-.142-2.092 1.572-3.799 3.67-3.799Z"/>
</svg>
